src/assets/Devices/ROG Ally Gyro.svg

<svg width="1646" height="689" viewBox="0 0 1646 689" fill="none" xmlns="http://www.w3.org/2000/svg">
<path d="M125.132 31.8646C116.122 31.8646 44.5443 100.14 41.0405 106.164C39.3913 108.999 37.5204 143.086 35.1668 185.968C32.5198 234.193 29.2623 293.543 25.0231 332.074C18.6162 390.309 15.346 485.191 14.5117 525.353C27.1921 555.474 54.455 619.733 62.0633 635.798C71.5736 655.879 81.5844 673.951 128.135 669.935C165.375 666.722 281.134 666.254 334.358 666.421H1311.42C1364.64 666.254 1480.4 666.722 1517.64 669.935C1564.19 673.951 1574.2 655.879 1583.71 635.798C1591.32 619.733 1618.58 555.474 1631.26 525.353C1630.43 485.191 1627.16 390.309 1620.75 332.074C1616.51 293.543 1613.26 234.193 1610.61 185.968C1608.26 143.086 1606.38 108.999 1604.74 106.164C1601.23 100.14 1529.65 31.8646 1520.64 31.8646H125.132Z" stroke="white" stroke-width="0.5"/>
<path d="M278.298 27.8478C284.805 27.8478 290.311 24.3337 290.311 17.8074C290.311 11.2811 289.811 1.74264 238.255 1.74264C228.433 1.74264 218.103 1.56044 207.676 1.37654C163.369 0.595099 117.313 -0.217175 101.106 12.7871C81.0843 28.8519 64.5664 46.9253 62.5642 53.9536C62.081 55.6498 61.1605 58.1354 60.1123 60.966C56.8171 69.8641 52.2597 82.1706 56.0572 84.0749C61.0626 86.585 64.0659 84.577 73.0757 76.0426C77.6533 71.7065 87.3993 62.9642 96.4054 54.8857C105.125 47.064 113.151 39.8645 115.121 37.8889C119.126 33.8727 130.638 27.8478 148.658 27.8478H278.298Z" stroke="white" stroke-width="2"/>
<path d="M1367.48 27.8478C1360.97 27.8478 1355.47 24.3337 1355.47 17.8074C1355.47 11.2811 1355.97 1.74264 1407.52 1.74264C1417.34 1.74264 1427.67 1.56044 1438.1 1.37654C1482.41 0.595099 1528.46 -0.217175 1544.67 12.7871C1564.69 28.8519 1581.21 46.9253 1583.21 53.9536C1583.7 55.6498 1584.62 58.1354 1585.66 60.966C1588.96 69.8641 1593.52 82.1706 1589.72 84.0749C1584.71 86.585 1581.71 84.577 1572.7 76.0426C1568.12 71.7065 1558.38 62.9642 1549.37 54.8857C1540.65 47.064 1532.63 39.8645 1530.66 37.8889C1526.65 33.8727 1515.14 27.8478 1497.12 27.8478H1367.48Z" stroke="white" stroke-width="2"/>
<path d="M277.734 28.089C284.241 28.089 289.747 24.5749 289.747 18.0486C289.747 11.5223 289.246 1.98384 237.69 1.98384C227.869 1.98384 217.538 1.80164 207.111 1.61774C162.804 0.836302 116.749 0.0240288 100.542 13.0283C80.5198 29.0931 64.0019 47.1665 61.9998 54.1948C61.5166 55.891 60.5961 58.3766 59.5479 61.2072C56.2527 70.1053 51.6953 82.4118 55.4927 84.3161C60.4981 86.8262 63.5014 84.8182 72.5112 76.2838C77.0888 71.9477 86.8349 63.2054 95.841 55.1269C104.561 47.3052 112.587 40.1057 114.557 38.1301C118.561 34.1139 130.074 28.089 148.093 28.089H277.734Z" stroke="white" stroke-width="2"/>
<path d="M1366.91 28.089C1360.41 28.089 1354.9 24.5749 1354.9 18.0486C1354.9 11.5223 1355.4 1.98384 1406.96 1.98384C1416.78 1.98384 1427.11 1.80164 1437.54 1.61774C1481.84 0.836302 1527.9 0.0240288 1544.11 13.0283C1564.13 29.0931 1580.65 47.1665 1582.65 54.1948C1583.13 55.891 1584.05 58.3766 1585.1 61.2072C1588.39 70.1053 1592.95 82.4118 1589.15 84.3161C1584.15 86.8262 1581.15 84.8182 1572.14 76.2838C1567.56 71.9477 1557.81 63.2054 1548.81 55.1269C1540.09 47.3052 1532.06 40.1057 1530.09 38.1301C1526.09 34.1139 1514.57 28.089 1496.55 28.089H1366.91Z" stroke="white" stroke-width="2"/>
<path d="M288.629 23.3302V20.3302H287.086L286.188 21.5863L288.629 23.3302ZM115.122 37.8889L117.246 40.007L117.246 40.007L115.122 37.8889ZM96.4057 54.8857L98.4004 57.1266L98.4089 57.1189L96.4057 54.8857ZM96.4052 54.8862L94.4105 52.6453L94.402 52.653L96.4052 54.8862ZM73.0759 76.0426L71.0129 73.8646L73.0759 76.0426ZM56.0574 84.0749L54.7126 86.7566L54.7126 86.7566L56.0574 84.0749ZM55.0141 82.9181L57.7595 81.7085L56.0291 77.7813L52.9352 80.7553L55.0141 82.9181ZM47.159 90.6012L49.2834 92.7194H49.2834L47.159 90.6012ZM30.8319 128.399L27.8696 127.925L30.8319 128.399ZM28.1384 144.82L31.0958 145.323L28.1384 144.82ZM6.11449 373.742L3.12272 373.52L6.11449 373.742ZM5.63015 515.474L8.61937 515.22L5.63015 515.474ZM51.1633 642.826L48.4588 644.124L51.1633 642.826ZM160.797 682.275L161.083 685.261L160.797 682.275ZM217.344 677.968L217.432 680.966H217.432L217.344 677.968ZM677.843 677.644H680.843V674.647L677.845 674.644L677.843 677.644ZM677.843 677.968H674.843V680.972L677.847 680.968L677.843 677.968ZM823 677.786L823.003 674.786H822.997L823 677.786ZM968.157 677.968L968.153 680.968L971.157 680.972V677.968H968.157ZM968.157 677.644L968.154 674.644L965.157 674.647V677.644H968.157ZM1428.66 677.968L1428.57 680.966L1428.66 677.968ZM1485.2 682.275L1484.92 685.261L1485.2 682.275ZM1594.84 642.826L1592.13 641.528L1594.84 642.826ZM1640.37 515.474L1643.36 515.728V515.728L1640.37 515.474ZM1639.89 373.742L1636.89 373.964L1639.89 373.742ZM1617.86 144.82L1620.82 144.316V144.316L1617.86 144.82ZM1615.17 128.399L1618.13 127.925V127.925L1615.17 128.399ZM1598.84 90.6012L1600.97 88.483V88.483L1598.84 90.6012ZM1590.83 82.7647L1592.9 80.6013L1589.64 77.4684L1588.02 81.6909L1590.83 82.7647ZM1589.72 84.0749L1591.06 86.7566L1591.06 86.7566L1589.72 84.0749ZM1572.7 76.0426L1570.64 78.2205L1570.64 78.2206L1572.7 76.0426ZM1549.38 54.8896L1551.38 52.6564L1551.37 52.6512L1551.37 52.6459L1549.38 54.8896ZM1549.37 54.8857L1547.37 57.1189L1547.37 57.1242L1547.38 57.1294L1549.37 54.8857ZM1530.66 37.8889L1528.53 40.007V40.007L1530.66 37.8889ZM1357.15 23.3302L1359.59 21.5863L1358.69 20.3302H1357.15V23.3302ZM278.298 30.8478C283.252 30.8478 288.217 29.0683 291.07 25.0741L286.188 21.5863C284.809 23.5171 282.002 24.8478 278.298 24.8478V30.8478ZM148.658 30.8478H278.298V24.8478H148.658V30.8478ZM117.246 40.007C120.541 36.7018 131.202 30.8478 148.658 30.8478V24.8478C130.075 24.8478 117.71 31.0436 112.997 35.7707L117.246 40.007ZM98.4089 57.1189C107.07 49.3495 115.198 42.0607 117.246 40.007L112.997 35.7707C111.105 37.6683 103.181 44.7785 94.4025 52.6525L98.4089 57.1189ZM98.3999 57.127L98.4004 57.1265L94.411 52.6449L94.4105 52.6453L98.3999 57.127ZM75.139 78.2206C79.6787 73.9204 89.3833 65.215 98.4084 57.1194L94.402 52.653C85.4152 60.7141 75.6283 69.4927 71.0129 73.8646L75.139 78.2206ZM54.7126 86.7566C56.2085 87.5068 57.7733 88.0303 59.4777 88.0778C61.2049 88.1259 62.8215 87.6787 64.4099 86.8821C67.3874 85.389 70.7225 82.404 75.139 78.2206L71.0129 73.8646C66.4196 78.2155 63.7482 80.5018 61.7203 81.5187C60.8059 81.9773 60.17 82.0948 59.6448 82.0801C59.0967 82.0649 58.4091 81.8981 57.4023 81.3932L54.7126 86.7566ZM52.2688 84.1277C52.7259 85.1653 53.5047 86.1509 54.7126 86.7566L57.4023 81.3932C57.5162 81.4504 57.6138 81.5285 57.6846 81.6078C57.7508 81.6819 57.7682 81.7284 57.7595 81.7085L52.2688 84.1277ZM52.9352 80.7553C49.9895 83.5866 47.3089 86.2019 45.0345 88.483L49.2834 92.7194C51.5165 90.4797 54.1638 87.8966 57.0931 85.081L52.9352 80.7553ZM45.0345 88.483C38.9751 94.5604 35.4449 98.2317 33.1245 103.679C30.8856 108.935 29.814 115.775 27.8696 127.925L33.7943 128.873C35.7974 116.356 36.7676 110.436 38.6445 106.03C40.4399 101.816 43.0995 98.9216 49.2834 92.7194L45.0345 88.483ZM27.8696 127.925C27.137 132.503 26.2751 137.888 25.1809 144.316L31.0958 145.323C32.1956 138.863 33.0616 133.451 33.7943 128.873L27.8696 127.925ZM25.1809 144.316C18.1441 185.654 10.1263 279.193 3.12272 373.52L9.10625 373.964C16.1178 279.53 24.1174 186.317 31.0958 145.323L25.1809 144.316ZM3.12272 373.52C-2.7353 452.417 1.17407 498.471 2.64093 515.728L8.61937 515.22C7.17 498.169 3.2788 452.45 9.10625 373.964L3.12272 373.52ZM2.64093 515.728C2.93916 519.237 3.11449 521.337 3.11449 522.341H9.11449C9.11449 521.008 8.90255 518.552 8.61937 515.22L2.64093 515.728ZM3.11449 522.341C3.11449 523.164 3.32016 524.22 3.55503 525.232C3.81071 526.334 4.17834 527.695 4.63666 529.265C5.55471 532.408 6.87169 536.508 8.48056 541.278C11.7006 550.825 16.1232 563.156 20.9474 576.101C30.5809 601.95 41.8855 630.432 48.4588 644.124L53.8678 641.528C47.4267 628.111 36.2069 599.865 26.5696 574.005C21.7585 561.096 17.359 548.828 14.1659 539.361C12.5682 534.624 11.2808 530.612 10.3961 527.583C9.95307 526.066 9.61975 524.824 9.39982 523.876C9.28983 523.402 9.21395 523.026 9.16688 522.74C9.11586 522.43 9.11449 522.319 9.11449 522.341H3.11449ZM48.4588 644.124C61.7815 671.876 82.6613 689 109.226 689V683C85.7365 683 66.5738 667.995 53.8678 641.528L48.4588 644.124ZM109.226 689C122.108 689 141.173 687.169 161.083 685.261L160.511 679.289C140.468 681.209 121.75 683 109.226 683V689ZM161.083 685.261C180.495 683.401 200.79 681.457 217.432 680.966L217.255 674.969C200.374 675.467 179.863 677.434 160.511 679.289L161.083 685.261ZM217.432 680.966C235.65 680.429 459.964 680.462 677.84 680.644L677.845 674.644C460.071 674.462 235.594 674.428 217.255 674.969L217.432 680.966ZM674.843 677.644V677.968H680.843V677.644H674.843ZM677.847 680.968C719.898 680.909 769.562 680.846 823.003 680.786L822.997 674.786C769.554 674.846 719.891 674.909 677.839 674.968L677.847 680.968ZM822.997 680.786C876.438 680.846 926.102 680.909 968.153 680.968L968.161 674.968C926.109 674.909 876.445 674.846 823.003 674.786L822.997 680.786ZM971.157 677.968V677.644H965.157V677.968H971.157ZM968.159 680.644C1186.04 680.462 1410.35 680.429 1428.57 680.966L1428.74 674.969C1410.41 674.428 1185.93 674.462 968.154 674.644L968.159 680.644ZM1428.57 680.966C1445.21 681.457 1465.5 683.401 1484.92 685.261L1485.49 679.289C1466.14 677.434 1445.63 675.467 1428.74 674.969L1428.57 680.966ZM1484.92 685.261C1504.83 687.169 1523.89 689 1536.77 689V683C1524.25 683 1505.53 681.209 1485.49 679.289L1484.92 685.261ZM1536.77 689C1563.34 689 1584.22 671.876 1597.54 644.124L1592.13 641.528C1579.43 667.995 1560.26 683 1536.77 683V689ZM1597.54 644.124C1604.11 630.432 1615.42 601.95 1625.05 576.101C1629.88 563.156 1634.3 550.825 1637.52 541.278C1639.13 536.508 1640.45 532.408 1641.36 529.265C1641.82 527.695 1642.19 526.334 1642.44 525.232C1642.68 524.22 1642.89 523.164 1642.89 522.341H1636.89C1636.89 522.319 1636.88 522.43 1636.83 522.74C1636.79 523.026 1636.71 523.402 1636.6 523.876C1636.38 524.824 1636.05 526.066 1635.6 527.583C1634.72 530.612 1633.43 534.624 1631.83 539.361C1628.64 548.828 1624.24 561.096 1619.43 574.005C1609.79 599.865 1598.57 628.111 1592.13 641.528L1597.54 644.124ZM1642.89 522.341C1642.89 521.337 1643.06 519.237 1643.36 515.728L1637.38 515.22C1637.1 518.552 1636.89 521.008 1636.89 522.341H1642.89ZM1643.36 515.728C1644.83 498.471 1648.74 452.417 1642.88 373.52L1636.89 373.964C1642.72 452.45 1638.83 498.169 1637.38 515.22L1643.36 515.728ZM1642.88 373.52C1635.87 279.193 1627.86 185.654 1620.82 144.316L1614.9 145.323C1621.88 186.317 1629.88 279.53 1636.89 373.964L1642.88 373.52ZM1620.82 144.316C1619.72 137.888 1618.86 132.503 1618.13 127.925L1612.21 128.873C1612.94 133.451 1613.8 138.863 1614.9 145.323L1620.82 144.316ZM1618.13 127.925C1616.19 115.775 1615.11 108.935 1612.88 103.679C1610.55 98.2317 1607.02 94.5604 1600.97 88.483L1596.72 92.7194C1602.9 98.9216 1605.56 101.816 1607.36 106.03C1609.23 110.436 1610.2 116.356 1612.21 128.873L1618.13 127.925ZM1600.97 88.483C1598.65 86.1607 1595.91 83.492 1592.9 80.6013L1588.75 84.9281C1591.74 87.803 1594.44 90.4392 1596.72 92.7194L1600.97 88.483ZM1588.02 81.6909C1588.01 81.7403 1588.01 81.7033 1588.08 81.6277C1588.14 81.5445 1588.25 81.4567 1588.37 81.3933L1591.06 86.7566C1592.39 86.0895 1593.19 84.9709 1593.63 83.8385L1588.02 81.6909ZM1588.37 81.3932C1587.37 81.8981 1586.68 82.0649 1586.13 82.0801C1585.61 82.0948 1584.97 81.9773 1584.06 81.5187C1582.03 80.5018 1579.36 78.2155 1574.76 73.8646L1570.64 78.2206C1575.05 82.404 1578.39 85.389 1581.37 86.8821C1582.96 87.6787 1584.57 88.1259 1586.3 88.0778C1588 88.0303 1589.57 87.5068 1591.06 86.7566L1588.37 81.3932ZM1574.76 73.8646C1570.15 69.4933 1560.36 60.7166 1551.38 52.6564L1547.37 57.1228C1556.4 65.2174 1566.1 73.921 1570.64 78.2205L1574.76 73.8646ZM1551.37 52.6459L1551.36 52.642L1547.38 57.1294L1547.38 57.1333L1551.37 52.6459ZM1551.37 52.6525C1542.6 44.7785 1534.67 37.6683 1532.78 35.7707L1528.53 40.007C1530.58 42.0607 1538.71 49.3495 1547.37 57.1189L1551.37 52.6525ZM1532.78 35.7707C1528.07 31.0436 1515.7 24.8478 1497.12 24.8478V30.8478C1514.58 30.8478 1525.24 36.7018 1528.53 40.007L1532.78 35.7707ZM1497.12 24.8478H1367.48V30.8478H1497.12V24.8478ZM1367.48 24.8478C1363.78 24.8478 1360.97 23.5171 1359.59 21.5863L1354.71 25.0741C1357.56 29.0683 1362.53 30.8478 1367.48 30.8478V24.8478ZM1357.15 20.3302H288.629V26.3302H1357.15V20.3302Z" fill="white"/>
<path d="M847.436 21.8262C847.689 19.0183 850.047 16.8019 852.914 16.8019H898.977C901.844 16.8019 904.202 19.0183 904.455 21.8262H847.436Z" stroke="white"/>
<path d="M926.522 21.8262C926.775 19.0183 929.133 16.8019 932 16.8019H978.063C980.93 16.8019 983.288 19.0183 983.541 21.8262H926.522Z" stroke="white"/>
<path d="M284.746 18.938C279.336 16.9599 268.584 13.0283 248.138 13.0283H146.528C128.508 13.0283 117.496 19.314 113.492 23.3302C113.064 23.7591 111.879 24.7117 110.202 26.0585C104.157 30.915 91.7317 40.8977 85.4617 49.9374C80.1821 54.6732 78.2151 61.4206 76.5691 67.0671C75.4072 71.0526 74.4053 74.4896 72.5112 76.2838C63.5014 84.8182 60.4982 86.8262 55.4927 84.3161C51.6954 82.4119 56.2523 70.1064 59.5473 61.2084L59.5478 61.2072L59.5484 61.2056C60.5964 58.3757 61.5167 55.8907 61.9998 54.1948C64.002 47.1665 80.5199 29.0931 100.542 13.0283C116.749 0.0240288 162.804 0.836302 207.111 1.61774C217.538 1.80164 227.869 1.98384 237.69 1.98384C289.246 1.98384 289.747 11.5223 289.747 18.0486C289.747 20.7666 288.607 20.3499 284.746 18.938Z" stroke="white"/>
<path d="M1360.47 18.938C1365.88 16.9599 1376.63 13.0283 1397.07 13.0283H1498.68C1516.7 13.0283 1527.72 19.314 1531.72 23.3302C1532.15 23.7591 1533.33 24.7117 1535.01 26.0585C1541.05 30.915 1553.48 40.8977 1559.75 49.9374C1565.03 54.6732 1567 61.4206 1568.64 67.0671C1569.8 71.0526 1570.81 74.4896 1572.7 76.2838C1581.71 84.8182 1584.71 86.8262 1589.72 84.3161C1593.52 82.4119 1588.96 70.1064 1585.66 61.2084L1585.66 61.2072L1585.66 61.2056C1584.62 58.3757 1583.69 55.8907 1583.21 54.1948C1581.21 47.1665 1564.69 29.0931 1544.67 13.0283C1528.46 0.0240288 1482.41 0.836302 1438.1 1.61774C1427.67 1.80164 1417.34 1.98384 1407.52 1.98384C1355.97 1.98384 1355.47 11.5223 1355.47 18.0486C1355.47 20.7666 1356.6 20.3499 1360.47 18.938Z" stroke="white"/>
</svg>

<svg width="1646" height="689" fill="none" xmlns="http://www.w3.org/2000/svg"><path d="M125.133 31.865c-9.01 0-80.588 68.275-84.092 74.299-1.649 2.836-3.52 36.922-5.873 79.804-2.647 48.226-5.905 107.575-10.144 146.106-6.407 58.235-9.677 153.117-10.511 193.279 12.68 30.121 39.943 94.38 47.551 110.445 9.51 20.081 19.521 38.154 66.072 34.137 37.24-3.213 152.999-3.681 206.223-3.514h977.061c53.22-.167 168.98.301 206.22 3.514 46.55 4.017 56.56-14.056 66.07-34.137 7.61-16.065 34.87-80.324 47.55-110.445-.83-40.162-4.1-135.044-10.51-193.279-4.24-38.531-7.49-97.88-10.14-146.106-2.35-42.882-4.22-76.968-5.87-79.804-3.51-6.024-75.09-74.3-84.1-74.3H125.133Z" stroke="#fff" stroke-width=".5"/><path d="M278.298 27.848c6.507 0 12.013-3.514 12.013-10.04 0-6.527-.5-16.065-52.056-16.065-9.822 0-20.152-.183-30.579-.366-44.307-.782-90.363-1.594-106.57 11.41-20.022 16.065-36.54 34.138-38.542 41.167-.483 1.696-1.404 4.181-2.452 7.012-3.295 8.898-7.852 21.205-4.055 23.109 5.006 2.51 8.009.502 17.019-8.032 4.577-4.337 14.323-13.079 23.33-21.157 8.719-7.822 16.745-15.022 18.715-16.997 4.005-4.016 15.517-10.041 33.537-10.041h129.64Zm1089.182 0c-6.51 0-12.01-3.514-12.01-10.04 0-6.527.5-16.065 52.05-16.065 9.82 0 20.15-.183 30.58-.366 44.31-.782 90.36-1.594 106.57 11.41 20.02 16.065 36.54 34.138 38.54 41.167.49 1.696 1.41 4.181 2.45 7.012 3.3 8.898 7.86 21.205 4.06 23.109-5.01 2.51-8.01.502-17.02-8.032-4.58-4.337-14.32-13.079-23.33-21.157-8.72-7.822-16.74-15.022-18.71-16.997-4.01-4.016-15.52-10.041-33.54-10.041h-129.64Z" stroke="#fff" stroke-width="2"/><path d="M277.735 28.089c6.507 0 12.013-3.514 12.013-10.04 0-6.527-.501-16.065-52.057-16.065-9.822 0-20.152-.182-30.579-.366C162.805.836 116.75.024 100.543 13.028c-20.022 16.065-36.54 34.139-38.542 41.167-.483 1.696-1.404 4.182-2.452 7.012-3.295 8.898-7.853 21.205-4.055 23.11 5.005 2.51 8.008.501 17.018-8.033 4.578-4.336 14.324-13.079 23.33-21.157 8.72-7.822 16.746-15.021 18.716-16.997 4.004-4.016 15.517-10.041 33.536-10.041h129.641Zm1089.175 0c-6.5 0-12.01-3.514-12.01-10.04 0-6.527.5-16.065 52.06-16.065 9.82 0 20.15-.182 30.58-.366 44.3-.782 90.36-1.594 106.57 11.41 20.02 16.065 36.54 34.139 38.54 41.167.48 1.696 1.4 4.182 2.45 7.012 3.3 8.898 7.85 21.205 4.06 23.11-5.01 2.51-8.01.501-17.02-8.033-4.58-4.336-14.33-13.079-23.33-21.157-8.72-7.822-16.75-15.021-18.72-16.997-4-4.016-15.51-10.041-33.53-10.041h-129.65Z" stroke="#fff" stroke-width="2"/><path d="M288.629 23.33v-3h-1.543l-.898 1.256 2.441 1.744ZM115.122 37.89l2.124 2.118-2.124-2.118ZM96.406 54.886l1.994 2.24.009-.007-2.003-2.233Zm0 0-1.996-2.24-.008.007 2.003 2.233Zm-23.33 21.156-2.063-2.178 2.063 2.178Zm-17.019 8.033-1.344 2.681 1.344-2.681Zm-1.043-1.157 2.745-1.21-1.73-3.927-3.094 2.974 2.08 2.163Zm-7.855 7.683 2.124 2.118-2.124-2.118Zm-16.327 37.797-2.962-.474 2.962.474Zm-2.694 16.422 2.958.503-2.958-.503ZM6.114 373.742l-2.991-.222 2.991.222ZM5.63 515.474l2.99-.254-2.99.254Zm45.533 127.352-2.704 1.298 2.704-1.298Zm109.634 39.449.286 2.986-.286-2.986Zm56.547-4.307.088 2.998-.088-2.998Zm460.499-.324h3v-2.998l-2.998-.002-.002 3Zm0 .324h-3v3.004l3.004-.004-.004-3ZM823 677.786l.003-3h-.006l.003 3Zm145.157.182-.004 3 3.004.004v-3.004h-3Zm0-.324-.003-3-2.997.002v2.998h3Zm460.503.324-.09 2.998.09-2.998Zm56.54 4.307-.28 2.986.28-2.986Zm109.64-39.449-2.71-1.298 2.71 1.298Zm45.53-127.352 2.99.254-2.99-.254Zm-.48-141.732-3 .222 3-.222Zm-22.03-228.922 2.96-.504-2.96.504Zm-2.69-16.422 2.96-.474-2.96.474Zm-16.33-37.797 2.13-2.118-2.13 2.118Zm-8.01-7.836 2.07-2.164-3.26-3.133-1.62 4.223 2.81 1.074Zm-1.11 1.31 1.34 2.681-1.34-2.681Zm-17.02-8.033-2.06 2.178 2.06-2.178Zm-23.32-21.153 2-2.233-.01-.005v-.005l-1.99 2.243Zm-.01-.003-2 2.233v.005l.01.005 1.99-2.243Zm-18.71-16.997-2.13 2.118 2.13-2.118ZM1357.15 23.33l2.44-1.744-.9-1.256h-1.54v3ZM278.298 30.848c4.954 0 9.919-1.78 12.772-5.774l-4.882-3.488c-1.379 1.931-4.186 3.262-7.89 3.262v6Zm-129.64 0h129.64v-6h-129.64v6Zm-31.412 9.159c3.295-3.305 13.956-9.16 31.412-9.16v-6c-18.583 0-30.948 6.197-35.661 10.923l4.249 4.237ZM98.409 57.119c8.661-7.77 16.789-15.058 18.837-17.112l-4.249-4.236c-1.892 1.897-9.816 9.007-18.594 16.881l4.006 4.467Zm-.01.008h.001l-3.989-4.482 3.989 4.482ZM75.14 78.22c4.54-4.3 14.244-13.005 23.27-21.1l-4.007-4.467c-8.987 8.061-18.774 16.84-23.39 21.211l4.127 4.356Zm-20.426 8.537c1.495.75 3.06 1.273 4.765 1.32 1.727.049 3.343-.398 4.932-1.195 2.977-1.493 6.313-4.478 10.729-8.662l-4.126-4.356c-4.593 4.351-7.265 6.638-9.293 7.655-.914.458-1.55.576-2.075.561-.548-.015-1.236-.182-2.243-.687l-2.69 5.364Zm-2.444-2.63c.457 1.038 1.236 2.024 2.444 2.63l2.69-5.364a.966.966 0 0 1 .282.215c.066.074.083.12.075.1l-5.491 2.42Zm.666-3.372a533.879 533.879 0 0 0-7.9 7.728l4.248 4.236a519.72 519.72 0 0 1 7.81-7.638l-4.158-4.326Zm-7.9 7.728c-6.06 6.077-9.59 9.749-11.91 15.196-2.24 5.256-3.311 12.095-5.255 24.245l5.924.949c2.003-12.517 2.974-18.437 4.85-22.843 1.796-4.215 4.456-7.109 10.64-13.31l-4.25-4.237ZM27.87 127.924c-.733 4.578-1.595 9.964-2.69 16.392l5.916 1.007c1.1-6.46 1.966-11.872 2.698-16.45l-5.924-.949Zm-2.69 16.392C18.145 185.654 10.127 279.193 3.124 373.52l5.983.444c7.012-94.434 15.011-187.647 21.99-228.641l-5.915-1.007ZM3.124 373.52c-5.858 78.897-1.949 124.951-.482 142.208l5.978-.508c-1.449-17.052-5.34-62.77.487-141.256l-5.983-.444ZM2.64 515.728c.298 3.509.473 5.608.473 6.613h6c0-1.333-.211-3.789-.495-7.121l-5.978.508Zm.473 6.613c0 .823.206 1.878.441 2.891a77.39 77.39 0 0 0 1.082 4.033c.918 3.143 2.235 7.243 3.844 12.013 3.22 9.547 7.642 21.878 12.466 34.823 9.634 25.849 20.939 54.331 27.512 68.023l5.409-2.596c-6.441-13.417-17.661-41.664-27.298-67.523-4.811-12.909-9.211-25.177-12.404-34.645-1.598-4.737-2.885-8.748-3.77-11.777a71.462 71.462 0 0 1-.996-3.707c-.11-.474-.186-.85-.233-1.136-.051-.31-.053-.421-.053-.399h-6ZM48.46 644.124C61.78 671.876 82.66 689 109.226 689v-6c-23.49 0-42.652-15.006-55.358-41.472l-5.41 2.596ZM109.226 689c12.882 0 31.947-1.831 51.857-3.739l-.572-5.972c-20.043 1.92-38.761 3.711-51.285 3.711v6Zm51.857-3.739c19.412-1.86 39.707-3.804 56.349-4.295l-.177-5.997c-16.881.498-37.392 2.465-56.744 4.32l.572 5.972Zm56.349-4.295c18.218-.537 242.532-.504 460.408-.322l.005-6c-217.774-.182-442.251-.216-460.59.325l.177 5.997Zm457.411-3.322v.324h6v-.324h-6Zm3.004 3.324c42.051-.059 91.715-.122 145.156-.182l-.006-6c-53.443.06-103.106.123-145.158.182l.008 6Zm145.15-.182c53.441.06 103.105.123 145.156.182l.008-6c-42.052-.059-91.716-.122-145.158-.182l-.006 6Zm148.16-2.818v-.324h-6v.324h6Zm-2.998 2.676c217.881-.182 442.191-.215 460.411.322l.17-5.997c-18.33-.541-242.81-.507-460.586-.325l.005 6Zm460.411.322c16.64.491 36.93 2.435 56.35 4.295l.57-5.972c-19.35-1.855-39.86-3.822-56.75-4.32l-.17 5.997Zm56.35 4.295c19.91 1.908 38.97 3.739 51.85 3.739v-6c-12.52 0-31.24-1.791-51.28-3.711l-.57 5.972Zm51.85 3.739c26.57 0 47.45-17.124 60.77-44.876l-5.41-2.596c-12.7 26.466-31.87 41.472-55.36 41.472v6Zm60.77-44.876c6.57-13.692 17.88-42.174 27.51-68.023 4.83-12.945 9.25-25.276 12.47-34.823 1.61-4.77 2.93-8.87 3.84-12.013.46-1.57.83-2.931 1.08-4.033.24-1.013.45-2.068.45-2.891h-6c0-.022-.01.089-.06.399-.04.286-.12.662-.23 1.136-.22.948-.55 2.19-1 3.707-.88 3.029-2.17 7.04-3.77 11.777-3.19 9.468-7.59 21.736-12.4 34.645-9.64 25.859-20.86 54.106-27.3 67.523l5.41 2.596Zm45.35-121.783c0-1.005.17-3.104.47-6.613l-5.98-.508c-.28 3.332-.49 5.788-.49 7.121h6Zm.47-6.613c1.47-17.257 5.38-63.311-.48-142.208l-5.99.444c5.83 78.486 1.94 124.204.49 141.256l5.98.508Zm-.48-142.208c-7.01-94.327-15.02-187.866-22.06-229.204l-5.92 1.007c6.98 40.994 14.98 134.207 21.99 228.641l5.99-.444Zm-22.06-229.204c-1.1-6.428-1.96-11.814-2.69-16.392l-5.92.948c.73 4.579 1.59 9.991 2.69 16.451l5.92-1.007Zm-2.69-16.392c-1.94-12.15-3.02-18.989-5.25-24.245-2.33-5.447-5.86-9.119-11.91-15.196l-4.25 4.236c6.18 6.203 8.84 9.096 10.64 13.311 1.87 4.406 2.84 10.326 4.85 22.843l5.92-.949Zm-17.16-39.441a559.491 559.491 0 0 0-8.07-7.882l-4.15 4.327c2.99 2.875 5.69 5.511 7.97 7.791l4.25-4.236Zm-12.95-6.792c-.01.05-.01.012.06-.064a.88.88 0 0 1 .29-.234l2.69 5.363c1.33-.667 2.13-1.785 2.57-2.918l-5.61-2.147Zm.35-.298c-1 .505-1.69.672-2.24.687-.52.015-1.16-.103-2.07-.561-2.03-1.017-4.7-3.304-9.3-7.655l-4.12 4.356c4.41 4.184 7.75 7.169 10.73 8.662 1.59.796 3.2 1.244 4.93 1.196 1.7-.048 3.27-.571 4.76-1.322l-2.69-5.363Zm-13.61-7.528c-4.61-4.372-14.4-13.148-23.38-21.209l-4.01 4.467c9.03 8.094 18.73 16.798 23.27 21.097l4.12-4.355Zm-23.39-21.22-.01-.003-3.98 4.487v.004l3.99-4.487Zm0 .007c-8.77-7.874-16.7-14.984-18.59-16.882l-4.25 4.237c2.05 2.054 10.18 9.342 18.84 17.112l4-4.467Zm-18.59-16.881c-4.71-4.727-17.08-10.923-35.66-10.923v6c17.46 0 28.12 5.854 31.41 9.159l4.25-4.236Zm-35.66-10.923h-129.64v6h129.64v-6Zm-129.64 0c-3.7 0-6.51-1.331-7.89-3.262l-4.88 3.488c2.85 3.994 7.82 5.774 12.77 5.774v-6Zm-10.33-4.518H288.629v6H1357.15v-6Z" fill="#fff"/><path d="M847.436 21.826c.253-2.808 2.611-5.024 5.478-5.024h46.063c2.867 0 5.225 2.216 5.478 5.024h-57.019Zm79.086 0c.253-2.808 2.611-5.024 5.478-5.024h46.063c2.867 0 5.225 2.216 5.478 5.024h-57.019Zm-641.775-2.888c-5.41-1.978-16.162-5.91-36.608-5.91h-101.61c-18.02 0-29.032 6.286-33.036 10.302-.428.43-1.613 1.382-3.29 2.729-6.045 4.856-18.47 14.839-24.74 23.878-5.28 4.736-7.247 11.484-8.893 17.13-1.162 3.986-2.164 7.423-4.058 9.217-9.01 8.534-12.013 10.542-17.018 8.032-3.798-1.904.76-14.21 4.054-23.108l.001-.002c1.048-2.83 1.969-5.315 2.452-7.011 2.002-7.029 18.52-25.102 38.542-41.167C116.75.024 162.805.836 207.112 1.618c10.427.184 20.758.366 30.579.366 51.556 0 52.057 9.538 52.057 16.065 0 2.718-1.14 2.3-5.001.89Zm1075.723 0c5.41-1.978 16.16-5.91 36.6-5.91h101.61c18.02 0 29.04 6.286 33.04 10.302.43.43 1.61 1.382 3.29 2.729 6.05 4.856 18.47 14.839 24.74 23.878 5.28 4.736 7.25 11.484 8.89 17.13 1.17 3.986 2.17 7.423 4.06 9.217 9.01 8.534 12.01 10.542 17.02 8.032 3.8-1.904-.76-14.21-4.05-23.108h-.01v-.002c-1.04-2.83-1.96-5.315-2.45-7.011-2-7.029-18.52-25.102-38.54-41.167C1528.46.024 1482.41.836 1438.1 1.618c-10.43.184-20.76.366-30.58.366-51.55 0-52.05 9.538-52.05 16.065 0 2.718 1.14 2.3 5 .89Z" stroke="#fff"/></svg>
